svg/color/conv.svg

<?xml version="1.0" encoding="UTF-8" ?>
<!DOCTYPE svg PUBLIC "-//W3C//DTD SVG 1.1//EN" "http://www.w3.org/Graphics/SVG/1.1/DTD/svg11.dtd">
<svg width="250pt" height="250pt" viewBox="0 0 250 250" version="1.1" xmlns="http://www.w3.org/2000/svg">
<g id="#ffffffff">
<path fill="#ffffff" opacity="1.00" d=" M 0.00 0.00 L 118.78 0.00 C 85.30 1.86 52.72 17.36 30.82 42.85 C 12.23 63.88 1.37 91.38 0.00 119.38 L 0.00 0.00 Z" />
<path fill="#ffffff" opacity="1.00" d=" M 131.41 0.00 L 250.00 0.00 L 250.00 121.37 C 249.32 99.85 243.00 78.59 231.91 60.14 C 210.17 81.68 188.60 103.39 166.96 125.02 C 188.59 146.66 210.17 168.36 231.90 189.90 C 242.72 172.00 248.86 151.42 250.00 130.55 L 250.00 250.00 L 130.60 250.00 C 161.35 248.59 191.28 235.43 213.11 213.74 C 202.40 202.34 191.04 191.53 180.05 180.39 C 163.75 196.79 139.87 205.31 116.87 202.68 C 103.93 201.42 91.36 196.73 80.67 189.34 C 64.91 178.48 53.28 161.71 48.98 143.04 C 45.10 126.88 46.61 109.51 53.18 94.25 C 59.88 78.55 71.94 65.22 86.82 56.87 C 101.04 48.87 117.83 45.48 134.03 47.47 C 151.30 49.35 167.77 57.40 180.05 69.67 C 191.09 58.70 202.04 47.63 213.10 36.68 C 191.91 14.57 161.81 1.94 131.41 0.00 Z" />
<path fill="#ffffff" opacity="1.00" d=" M 0.00 130.53 C 0.82 145.96 4.29 161.29 10.57 175.42 C 22.96 203.76 46.29 227.08 74.63 239.46 C 88.18 245.53 102.85 248.76 117.62 250.00 L 0.00 250.00 L 0.00 130.53 Z" />
</g>
<g id="#e2223bff">
<path fill="#e2223b" opacity="1.00" d=" M 118.78 0.00 L 131.41 0.00 C 161.81 1.94 191.91 14.57 213.10 36.68 C 202.04 47.63 191.09 58.70 180.05 69.67 C 167.77 57.40 151.30 49.35 134.03 47.47 C 117.83 45.48 101.04 48.87 86.82 56.87 C 71.94 65.22 59.88 78.55 53.18 94.25 C 46.61 109.51 45.10 126.88 48.98 143.04 C 53.28 161.71 64.91 178.48 80.67 189.34 C 91.36 196.73 103.93 201.42 116.87 202.68 C 139.87 205.31 163.75 196.79 180.05 180.39 C 191.04 191.53 202.40 202.34 213.11 213.74 C 191.28 235.43 161.35 248.59 130.60 250.00 L 117.62 250.00 C 102.85 248.76 88.18 245.53 74.63 239.46 C 46.29 227.08 22.96 203.76 10.57 175.42 C 4.29 161.29 0.82 145.96 0.00 130.53 L 0.00 119.38 C 1.37 91.38 12.23 63.88 30.82 42.85 C 52.72 17.36 85.30 1.86 118.78 0.00 Z" />
</g>
<g id="#372d88ff">
<path fill="#372d88" opacity="1.00" d=" M 166.96 125.02 C 188.60 103.39 210.17 81.68 231.91 60.14 C 243.00 78.59 249.32 99.85 250.00 121.37 L 250.00 130.55 C 248.86 151.42 242.72 172.00 231.90 189.90 C 210.17 168.36 188.59 146.66 166.96 125.02 Z" />
</g>
</svg>

<?xml version="1.0" encoding="utf-8"?>
<!-- Generator: Adobe Illustrator 26.0.3, SVG Export Plug-In . SVG Version: 6.00 Build 0)  -->
<svg version="1.1" id="Layer_1" xmlns="http://www.w3.org/2000/svg" xmlns:xlink="http://www.w3.org/1999/xlink" x="0px" y="0px"
	 viewBox="0 0 250 250" style="enable-background:new 0 0 250 250;" xml:space="preserve">
<style type="text/css">
	.st0{fill:#E2223B;}
	.st1{fill:#372D88;}
</style>
<g id="_x23_e2223bff">
	<path class="st0" d="M118.8,0h12.6c30.4,1.9,60.5,14.6,81.7,36.7c-11.1,11-22,22-33.1,33c-12.3-12.3-28.8-20.3-46-22.2
		c-16.2-2-33,1.4-47.2,9.4c-14.9,8.4-26.9,21.7-33.6,37.4c-6.6,15.3-8.1,32.6-4.2,48.8c4.3,18.7,15.9,35.4,31.7,46.3
		c10.7,7.4,23.3,12.1,36.2,13.3c23,2.6,46.9-5.9,63.2-22.3c11,11.1,22.3,21.9,33.1,33.4c-21.8,21.7-51.8,34.8-82.5,36.3h-13
		c-14.8-1.2-29.4-4.5-43-10.5c-28.3-12.4-51.7-35.7-64.1-64C4.3,161.3,0.8,146,0,130.5v-11.2c1.4-28,12.2-55.5,30.8-76.5
		C52.7,17.4,85.3,1.9,118.8,0z"/>
</g>
<g id="_x23_372d88ff">
	<path class="st1" d="M167,125c21.6-21.6,43.2-43.3,64.9-64.9c11.1,18.4,17.4,39.7,18.1,61.2v9.2c-1.1,20.9-7.3,41.4-18.1,59.3
		C210.2,168.4,188.6,146.7,167,125z"/>
</g>
</svg>
